Numix-Light-GalliumOS/scalable/actions/image-crop-symbolic.svg

<svg xmlns="http://www.w3.org/2000/svg" viewBox="0 0 16 16">
 <path d="m 3 0 l 0 2 l 2 0 l 0 -2 l -2 0 z m -3 3 l 0 2 l 11 0 l 0 11 l 2 0 l 0 -11 l 0 -2 l -2 0 l -11 0 z m 3 3 l 0 5 l 0 2 l 2 0 l 5 0 l 0 -2 l -5 0 l 0 -5 l -2 0 z m 11 5 l 0 2 l 2 0 l 0 -2 l -2 0 z" style="fill:#353535;color:#353535"/>
</svg>

<svg xmlns="http://www.w3.org/2000/svg" viewBox="0 0 16 16">
<path style="fill:#353535;color:#353535" d="M 3 0 L 3 2 L 5 2 L 5 0 L 3 0 z M 0 3 L 0 5 L 11 5 L 11 16 L 13 16 L 13 5 L 13 3 L 11 3 L 0 3 z M 3 6 L 3 11 L 3 13 L 5 13 L 10 13 L 10 11 L 5 11 L 5 6 L 3 6 z M 14 11 L 14 13 L 16 13 L 16 11 L 14 11 z "/>
</svg>
